X:1
T:Getting Upstairs
M:2/2
C:
S:Bacon (MDT)
N:
H:abcTranscriber: Alex Boster 
A:Headington
O:English
R:
%P:A/2.(AB)$^4$
P:A.(AB)4
L:1/8
K:G
Q:1/2=116
P:A
 |: dc | B2 G2 D2 G2 | FGAB c2 dc | B2 G2 D2 G2 |1 FGAF G2 :|2 FGAF G4 ||
P:B
 |: B3 c d2 G2 | B2 c2 d2 G2 | e3 d c2 B2 | A2 B2 c2 dc |
 B2 G2 D2 G2 | FGAB c2 dc | B2 G2 D2 G2 | FGAF G4 :|
